X: 1932
T: Vazgeçip Naz
C: Medenî Aziz Efendi
O: Turkey
F: http://compmusic.upf.edu/node/140
N: hicazkar--sarki--turkaksagi--vazgecip_naz--medeni_aziz_efendi
N: makam= hicazkar
N: form= sarki
N: usul= turkaksagi = 5/8
M: 5/8
L: 1/16
K: C _1/4B _7/8e _7/8A ^f
Q: 1/4=120
%%MIDI tuningsystem comma53
f4 g4 =a2 | _b=a gfg6  | c'_b=ag f4 g2 | \
w:   |   |   | 
fe edd4z2  | edcB c2d2 ef | 
w:   |   | 
g2 =a_bag fed2  | =a2gf f2e2 ed | d4cd efg2  | 
w:   |   |   | 
f4 g4 =a2 | _b=a gfg6  | c'_b=ag f4 g2 | \
w:   |   |   | 
fe edd4z2  | edcB c2d2 ef | 
w:   |   | 
g2 =a_bag fed2  | =a2gf f2e2 ed | d4cd efg2  | 
w:   |   |   | 
g4 d2e2 =fg | =fe ede4dc  | dede =f2g2 gf | \
w:   |   |   | 
ed c2d4z2  | 
w:   | 
d4 e4 dc | B4c4BA  | G2AB c2BA AG | G4cd efg2  | 
w:   |   |   |   | 
g4 d2e2 =fg | =fe ede4dc  | dede =f2g2 gf | \
w:   |   |   | 
ed c2d4z2  | 
w:   | 
d4 e4 dc | B4c4BA  | G2AB c2BA AG | G4g2 fg=a2  | 
w:   |   |   |   | 
g4 c'2_b2 =a2 | =a2 _baa6  | c'_b=ag f2g2 ab | \
w:   |   |   | 
=ag gfg4z2  | 
w:   | 
=agfe d2e2 f2 | g2 =a_bag fed2  | =a2gf f2e2 ed | 
w:   |   |   | 
d4cd efg2  | g4 d2e2 =fg | =fe ede4dc  | \
w:   |   |   | 
dede =f2g2 gf | 
w:   | 
ed c2d4z2  | d4 e4 dc | B4c4BA  | G2AB c2BA AG | 
w:   |   |   |   | 
G4cd efg2  | g4 d2e2 =fg | =fe ede4dc  | \
w:   |   |   | 
dede =f2g2 gf | 
w:   | 
ed c2d4z2  | d4 e4 dc | B4c4BA  | G2AB c2BA AG | 
w:   |   |   |   | 
G4g2 fg=a2  | g4 c'2_b2 =a2 | =a2 _baa6  | \
w:   |   |   | 
c'_b=ag f2g2 ab | 
w:   | 
=ag gfg4z2  | =agfe d2e2 f2 | g2 =a_bag fed2  | 
w:   |   |   | 
=a2gf f2e2 ed | d4cd efg2  | f4 g4 fe | \
w:   |   |   | 
d2 f2e4dc  | 
w:   | 
B2c2 d2e2 dc | dc Bcd4z2  | B4 c2B2 A2 | \
w:   |   |   | 
G2 g2gf edc2  | 
w:   | 
B2AG d4 cB | BA AGG4z2  | f4 g4 fe | d2 f2e4dc  | 
w:   |   |   |   | 
B2c2 d2e2 dc | dc Bcd4z2  | B4 c2B2 A2 | \
w:   |   |   | 
G2 g2gf edc2  | 
w:   | 
B2AG d4 cB | BA AGG4z2  | f4 g4 =a2 | _b=a gfg6  | \
w:   |   |   |   | 
c'_b=ag f4 g2 | 
w:   | 
fe edd4z2  | edcB c2d2 ef | g2 =a_bag fed2  | 
w:   |   |   | 
=a2gf f2e2 ed | d4cd efg2  | f4 g4 =a2 | \
w:   |   |   | 
_b=a gfg6  | 
w:   | 
c'_b=ag f4 g2 | fe edd4z2  | edcB c2d2 ef | \
w:   |   |   | 
g2 =a_bag fed2  | 
w:   | 
=a2gf f2e2 ed | d4cd efg2  | g4 d2e2 =fg | \
w:   |   |   | 
=fe ede4dc  | 
w:   | 
dede =f2g2 gf | ed c2d4z2  | d4 e4 dc | \
w:   |   |   | 
B4c4BA  | 
w:   | 
G2AB c2BA AG | G4G4z2  | |


